icons/merge-cells-vertical.svg

<svg xmlns="http://www.w3.org/2000/svg" width="24" height="24" fill="none"><g clip-path="url(#a)"><g><path fill="#121212" d="M21 20C21 20.552 20.552 21 20 21H4C3.448 21 3 20.552 3 20V4C3 3.448 3.448 3 4 3H20C20.552 3 21 3.448 21 4V20ZM19 11V5H13.001V7H15L12 10L9 7H11V5H5V11H7V13H5V19H11V17H9L12 14L15 17H13.001V19H19V13H17V11H19ZM11 13H9V11H11V13ZM15 13H13V11H15V13Z"/></g></g><defs><clipPath id="a"><rect width="24" height="24" fill="white"/></clipPath></defs></svg>

<svg width="24" height="24" fill="none" xmlns="http://www.w3.org/2000/svg"><g clip-path="url(#a)"><path d="M21 20a1 1 0 0 1-1 1H4a1 1 0 0 1-1-1V4a1 1 0 0 1 1-1h16a1 1 0 0 1 1 1v16Zm-2-9V5h-5.999v2H15l-3 3-3-3h2V5H5v6h2v2H5v6h6v-2H9l3-3 3 3h-1.999v2H19v-6h-2v-2h2Zm-8 2H9v-2h2v2Zm4 0h-2v-2h2v2Z" /></g><defs><clipPath id="a"><path fill="#fff" d="M0 0h24v24H0z"/></clipPath></defs></svg>
